app/assets/images/heroicons/solid/h2.svg

<svg width="24" height="24" viewBox="0 0 24 24" fill="none" xmlns="http://www.w3.org/2000/svg">
<path fill-rule="evenodd" clip-rule="evenodd" d="M2.24609 3.74316C2.66031 3.74316 2.99609 4.07896 2.99609 4.49318V11.2439H11.9963V4.49318C11.9963 4.07896 12.3321 3.74316 12.7463 3.74316C13.1605 3.74316 13.4963 4.07896 13.4963 4.49318V19.4946C13.4963 19.9089 13.1605 20.2446 12.7463 20.2446C12.3321 20.2446 11.9963 19.9089 11.9963 19.4946V12.7439H2.99609V19.4946C2.99609 19.9089 2.66031 20.2446 2.24609 20.2446C1.83188 20.2446 1.49609 19.9089 1.49609 19.4946V4.49318C1.49609 4.07896 1.83188 3.74316 2.24609 3.74316ZM18.7502 10.5C18.023 10.5 17.3089 10.5544 16.6118 10.6592C16.2022 10.7209 15.8202 10.4387 15.7586 10.0291C15.6969 9.61951 15.979 9.23751 16.3887 9.17589C17.1594 9.05995 17.948 8.99992 18.7502 8.99992C19.179 8.99992 19.604 9.01707 20.0244 9.05075C21.1727 9.14274 22.1771 9.97353 22.3721 11.1658C22.4564 11.6819 22.5002 12.2111 22.5002 12.75C22.5002 13.815 21.824 14.6767 20.969 15.1042L18.0794 16.549C17.5712 16.8031 17.2502 17.3225 17.2502 17.8907V18.7502H21.7502C22.1644 18.7502 22.5002 19.0859 22.5002 19.5002C22.5002 19.9144 22.1644 20.2502 21.7502 20.2502H16.5002C16.086 20.2502 15.7502 19.9144 15.7502 19.5002V17.8907C15.7502 16.7544 16.3922 15.7155 17.4086 15.2074L20.2981 13.7625C20.7461 13.5385 21.0002 13.142 21.0002 12.75C21.0002 12.2925 20.963 11.8442 20.8917 11.4078C20.817 10.9511 20.4219 10.5874 19.9046 10.546C19.524 10.5155 19.139 10.5 18.7502 10.5Z" fill="black"/>
</svg>

<svg xmlns="http://www.w3.org/2000/svg" viewBox="0 0 24 24" fill="currentColor" aria-hidden="true" data-slot="icon">
  <path fill-rule="evenodd" d="M2.246 3.743a.75.75 0 0 1 .75.75v6.75h9v-6.75a.75.75 0 0 1 1.5 0v15.002a.75.75 0 1 1-1.5 0v-6.751h-9v6.75a.75.75 0 1 1-1.5 0v-15a.75.75 0 0 1 .75-.75ZM18.75 10.5c-.727 0-1.441.054-2.138.16a.75.75 0 1 1-.223-1.484 15.867 15.867 0 0 1 3.635-.125c1.149.092 2.153.923 2.348 2.115.084.516.128 1.045.128 1.584 0 1.065-.676 1.927-1.531 2.354l-2.89 1.445a1.5 1.5 0 0 0-.829 1.342v.86h4.5a.75.75 0 1 1 0 1.5H16.5a.75.75 0 0 1-.75-.75v-1.61a3 3 0 0 1 1.659-2.684l2.89-1.445c.447-.223.701-.62.701-1.012a8.32 8.32 0 0 0-.108-1.342c-.075-.457-.47-.82-.987-.862a14.45 14.45 0 0 0-1.155-.046Z" clip-rule="evenodd"/>
</svg>
